X: 694
T: Ey Benim Güzel Kuşum
C: Reşat Erer
O: Turkey
F: http://compmusic.upf.edu/node/140
N: acemasiran--fantezi--yuruksemai_ii--ey_benim--resat_erer
N: makam= acemasiran
N: form= fantezi
N: usul= yuruksemai_ii = 6/8
M: 6/8
L: 1/16
K: C _B   
Q: 1/4=126
%%MIDI tuningsystem comma53
F2E2 F2A2 ^G2A2  | c2=B2 c2f6  | b2a2 g2f2 e2d2  | \
w:  ARANAĞME  |   |   | 
c2f2 a2c'6  | d'2c'2 b2a2 ^g2a2  | 
w:   |   | 
d'2c'2 b2g6  | b2a2 g2f2 e2d2  | c2d2 e2f6  | \
w:   |   |   | 
c2=B2 c2f2 e2f2  | B2A2 B2d2 ^c2d2  | 
w:   |   | 
A2B2 =B2c2 ^c2d2  | fedc =Bdc6  | c6f6  | \
w:   |   |   | 
B6d6  | cbag f_7/8edc BAGF  | 
w:   |   | 
GABc AGF6  | F2E2 F2A2 ^G2A2  | c2=B2 c2f6  | \
w:   |  ARANAĞME  |   | 
b2a2 g2f2 e2d2  | 
w:   | 
c2f2 a2c'6  | d'2c'2 b2a2 ^g2a2  | d'2c'2 b2g6  | \
w:   |   |   | 
b2a2 g2f2 e2d2  | c2d2 e2f6  | 
w:   |   | 
c2=B2 c2f2 e2f2  | B2A2 B2d2 ^c2d2  | \
w:   |   | 
A2B2 =B2c2 ^c2d2  | fedc =Bdc6  | 
w:   |   | 
c6f6  | B6d6  | cbag f_7/8edc BAGF  | GABc AGF6  | 
w:   |   |   |   | 
c6f6  | a6c'4b2  | a4 g2g2 f2e2  | f12  | b4 a2g4f2  | \
w:  Ey  be  |  nim  gü  |  zel  *  ku  |  şum    |  An *  la  | 
a4 g2f4e2  | e4 d2^c2 d2e2  | 
w:  dım  *  ki   |  dün  *  ak  | 
d12  | c4 B2A4B2  | f2_7/8e2 d2c2 B2A2  | \
w:  şam    |  Ar *  tık   |  u *  *  nu  | 
G2A2 B2A2 G2E2  | F12  | f4 c2f4c2  | 
w:  tul *  *  mu  |  şum    |  SAZ  | 
f4 c2a6  | d'c'ba ^gac'b a=g^fg  | bagf egf6  | 
w:   |   |   | 
f2ff fcf2 fffc  | f2ff fca6  | d'c'ba ^gac'b a=g^fg  | 
w:   |   |   | 
bagf egf6  | a6a6  | ^g2a2 b2a6  | e2f2 ^g2f2 e2d2  | \
w:   |  Bey hû  |  de *  *  dir   |  ne  *  *  yap  | 
^c4 (3BA^GA6  | 
w:  sam    | 
a6a6  | ^g2a2 b2d'2 c'2b2  | a4 g2g2 f2e2  | f12  | \
w:  Bey hû  |  de *  *  dir   |  ne  *  yap  |  sam    | 
g6g6  | g6c'6  | _e'2d'2 c'2c'2 =b2_a2  | 
w:  Hat ta   |  sa na   |  de *  *  sem   | 
_7/8a2g2 f2e2 _7/8d2c2  | B6B6  | B6d6  | \
w:  ki    |  Ben ce   |  yi ne   | 
d2c2 B2B2 A2^G2  | A6z6  | A4 G2F4G2  | 
w:  ev *  *  vel  |  ki    |  Ben *  ce   | 
A4 G2F4A2  | A4 G2F4d2  | c12  | _a2g2 f2_e2 d2c2  | \
w:  yi *  ne   |  ev *  vel  |  ki    |  Ev *  *  vel  | 
_e2d2 c2B2 A2G2  | 
w:  ki  *  *  gü  | 
A4 F2G4C2  | E12  | C4 (3FEFG4A2  | C4 (3FEFG4A2  | \
w:  zel  *  kuş  |  sun    |  SAZ  |   | 
B2A2 ^G2A2 B2=B2  | 
w:   | 
c12  | c6_3/4d2 c4  | _2/4B2(3c2_3/4d2e2f2 e2d2  | \
w:   |   |   | 
g2f2 e2_3/4d2 c2_2/4B2  | c12  | c6c6  | \
w:   |   |  Ma dem   | 
c6_3/4d6  | 
w:  ki   | 
c4 _2/4B2c4_3/4d2  | _7/8a8-_7/8a2z2  | \
w:  u *  nut muş  |  sun    | 
_7/8a4 g2g4f2  | f4 e2e4_3/4d2  | _3/4d4 c2_2/4B4d2  | \
w:  Doğ *  ru  |  su  *  gü  |  cen *  me  | 
c4 _2/4B2A6  | 
w:  dim    | 
c6c6  | c6_3/4d6  | c4 _2/4B2c4_3/4d2  | \
w:  Ma dem   |  ki   |  u *  nut muş  | 
_7/8a8-_7/8a2z2  | _7/8a4 g2g4f2  | f4 e2e4_3/4d2  | \
w:  sun    |  Doğ *  ru  |  su  *  gü  | 
_3/4d4 c2_2/4B4d2  | 
w:  cen *  me  | 
c4 _2/4B2A6  | A4 _2/4B2c4B2  | A4 _2/4B2c4B2  | \
w:  dim    |  U *  nut  |  muş  *  be  | 
A4 G2e4_3/4d2  | c12  | c6c6  | f12  | c4 d2_7/8e2 d2c2  | 
w:  ni  *  de  |  dim    |  O lur   |  ya   |  o *  la  | 
c2B2 A2A6  | F4 G2A2 B2c2  | d2c2 B2A2 G2F2  | \
w:  maz  *  *  mı    |  U *  nu  |  tu *  *  lan  | 
G6C6  | F12  | |


